X: 123
T:Sligo Maid
R:Reel
Z:Boston
M:C|
L:1/8
Q:1/2=112
K:Amix
|:A2BA  (3Bcd ef|gedB AGEF|~G2BG dGBG|DEGA BAdB|
A2BA  (3Bcd ef|gedB AGEG|B3G A2GE|DEGA BA~A2:|
|:eaag a2ga|bgab gfed|eggf ~g3e|dega bgag|
eaag a2ga|bgab gfed|eg~g2 edBc|dBgB BA~A2:|
